packages/rn-bitcoin-icons/svg/filled/devices.svg

<svg width="24" height="24" viewBox="0 0 24 24" fill="none" xmlns="http://www.w3.org/2000/svg">
<path fill-rule="evenodd" clip-rule="evenodd" d="M8.5 4C7.67157 4 7 4.67157 7 5.5V18.5C7 19.3284 7.67157 20 8.5 20H15.5C16.3284 20 17 19.3284 17 18.5V5.5C17 4.67157 16.3284 4 15.5 4H8.5ZM9.75 6C9.33579 6 9 6.33579 9 6.75V11.25C9 11.6642 9.33579 12 9.75 12H14.25C14.6642 12 15 11.6642 15 11.25V6.75C15 6.33579 14.6642 6 14.25 6H9.75ZM9 14.25C9 14.6642 9.33579 15 9.75 15H10.25C10.6642 15 11 14.6642 11 14.25C11 13.8358 10.6642 13.5 10.25 13.5H9.75C9.33579 13.5 9 13.8358 9 14.25ZM13.75 15C13.3358 15 13 14.6642 13 14.25C13 13.8358 13.3358 13.5 13.75 13.5H14.25C14.6642 13.5 15 13.8358 15 14.25C15 14.6642 14.6642 15 14.25 15H13.75Z" fill="black"/>
</svg>

<svg xmlns="http://www.w3.org/2000/svg" viewBox="0 0 24 24" fill="currentColor">
  <path fill-rule="evenodd" d="M8.5 4A1.5 1.5 0 007 5.5v13A1.5 1.5 0 008.5 20h7a1.5 1.5 0 001.5-1.5v-13A1.5 1.5 0 0015.5 4h-7zm1.25 2a.75.75 0 00-.75.75v4.5c0 .414.336.75.75.75h4.5a.75.75 0 00.75-.75v-4.5a.75.75 0 00-.75-.75h-4.5zM9 14.25c0 .414.336.75.75.75h.5a.75.75 0 000-1.5h-.5a.75.75 0 00-.75.75zm4.75.75a.75.75 0 010-1.5h.5a.75.75 0 010 1.5h-.5z" clip-rule="evenodd"/>
</svg>
